X:1
T:Bonnie at Morn
R:Waltz
M:3/4
L:1/4
K:Am
A|\
"Am"e>f e/d/|eA B/c/|"G"d>c B/A/|G>AB|"Am"e>f e/d/|eA B/c/|"G"d/B/GB|
"Am"A2 A|e>f e/d/|eA B/c/|"G"d>c B/A/|G>AB| "Am"A/G/ A/B/ c/d/|eag|"G"d<gB|"Am"A3|
|:"Am" A aa|A>Bc|"G"Bgg|G>AB|"Am"A/G/ A/B/ c/d/|eag|"G"d/g/-gB|"Am" A3:|
